!!!SOCIAL_FUNCTION:	songs connected with ceremonies
!!!PDT:	1929
!!!OTL: No_118_On_Top_of_the_Mountain_the_Wind_Blows.krn
!!!REG: Southwest
!!!LANG: Non-Tone
!!!LING_GROUP: Uto-Aztecan
**kern
*staff1
*clefF4
*k[b-]
*M3/4
8.F\L
16F\Jk
=1
8.c\L
16c\Jk
8.c\L
16c\Jk
8c\L
16A\L
16A\JJ
=2
16c\LL
16c\
16.c\
32A\JJk
16G\LL
16F\
16G\
16G\JJ
16G\LL
16F\
16D\
16D\JJ
=3||
*M2/4
12F\L
12F\
12F\J
16.F\LL
32D\K
16D\
16D\JJ
=4
12G\L
12G\
12G\J
12G\L
12F\
12D\J
=5
16G\LL
16G\
16.G\
32F\JJk
4D\
=6
16F\LL
16F\
16.F\
32F\JJk
8F\L
16D\L
16D\JJ
=7
12F\L
12F\
12F\J
12F\L
12D\
12D\J
=8||
*M3/4
16F\LL
16F\
16.F\
32F\JJk
8.F\L
16F\Jk
8.F\L
16D\Jk
=9||
*M2/4
16F\LL
16F\
16.F\
32F\JJk
12F\L
12F\
12F\J
=10
8F\L
[8F\J
4F\]
==
*-
